X:25
T:Country Dance. RDO.25
M:4/4
L:1/8
Q:1/2=90
S:Robert D. Owen MS,Indiana,1826.
R:.Reel
O:Indiana,USA
A:New Harmony
Z:vmp.Chris Partington
K:G
D|G2 BG EAFD|G2 Bd gdBG|cedB EAFD|ecfd g2″cr”g:|!
|:d|g2 dg Bgdg|g2 fg aA ce|g2 dg Bgdg|eafd g2gd|!
g2 dg Bgdg|g2fg aA ce|gbaf gdBG|eafd g2g:|

